img/whitebtn.svg

<svg width="116" height="46" viewBox="0 0 116 46" fill="none" xmlns="http://www.w3.org/2000/svg">
<path d="M21.878 30.18C20.882 30.18 20.036 30 19.34 29.64C18.644 29.28 18.02 28.752 17.468 28.056L18.872 26.652C19.22 27.156 19.634 27.552 20.114 27.84C20.594 28.116 21.206 28.254 21.95 28.254C22.646 28.254 23.198 28.11 23.606 27.822C24.026 27.534 24.236 27.138 24.236 26.634C24.236 26.214 24.128 25.872 23.912 25.608C23.696 25.344 23.408 25.128 23.048 24.96C22.7 24.78 22.31 24.624 21.878 24.492C21.458 24.348 21.032 24.192 20.6 24.024C20.18 23.844 19.79 23.622 19.43 23.358C19.082 23.094 18.8 22.752 18.584 22.332C18.368 21.912 18.26 21.378 18.26 20.73C18.26 19.986 18.44 19.356 18.8 18.84C19.172 18.312 19.67 17.91 20.294 17.634C20.918 17.358 21.614 17.22 22.382 17.22C23.21 17.22 23.948 17.382 24.596 17.706C25.256 18.03 25.79 18.444 26.198 18.948L24.794 20.352C24.434 19.944 24.056 19.644 23.66 19.452C23.276 19.248 22.832 19.146 22.328 19.146C21.704 19.146 21.212 19.272 20.852 19.524C20.504 19.776 20.33 20.13 20.33 20.586C20.33 20.97 20.438 21.282 20.654 21.522C20.87 21.75 21.152 21.948 21.5 22.116C21.86 22.272 22.25 22.422 22.67 22.566C23.102 22.71 23.528 22.872 23.948 23.052C24.38 23.232 24.77 23.466 25.118 23.754C25.478 24.03 25.766 24.39 25.982 24.834C26.198 25.278 26.306 25.836 26.306 26.508C26.306 27.636 25.904 28.53 25.1 29.19C24.308 29.85 23.234 30.18 21.878 30.18ZM34.022 30V25.014C34.022 24.438 33.836 23.964 33.464 23.592C33.104 23.22 32.636 23.034 32.06 23.034C31.676 23.034 31.334 23.118 31.034 23.286C30.734 23.454 30.5 23.688 30.332 23.988C30.164 24.288 30.08 24.63 30.08 25.014L29.306 24.582C29.306 23.922 29.45 23.34 29.738 22.836C30.026 22.32 30.422 21.918 30.926 21.63C31.442 21.33 32.018 21.18 32.654 21.18C33.302 21.18 33.878 21.324 34.382 21.612C34.886 21.9 35.282 22.302 35.57 22.818C35.858 23.322 36.002 23.91 36.002 24.582V30H34.022ZM28.1 30V17.04H30.08V30H28.1ZM41.974 30.18C41.134 30.18 40.372 29.982 39.688 29.586C39.004 29.178 38.458 28.632 38.05 27.948C37.654 27.264 37.456 26.502 37.456 25.662C37.456 24.822 37.654 24.066 38.05 23.394C38.458 22.722 39.004 22.188 39.688 21.792C40.372 21.384 41.134 21.18 41.974 21.18C42.826 21.18 43.594 21.378 44.278 21.774C44.962 22.17 45.502 22.71 45.898 23.394C46.306 24.066 46.51 24.822 46.51 25.662C46.51 26.502 46.306 27.264 45.898 27.948C45.502 28.632 44.962 29.178 44.278 29.586C43.594 29.982 42.826 30.18 41.974 30.18ZM41.974 28.272C42.466 28.272 42.898 28.164 43.27 27.948C43.654 27.72 43.948 27.408 44.152 27.012C44.368 26.616 44.476 26.166 44.476 25.662C44.476 25.158 44.368 24.714 44.152 24.33C43.936 23.946 43.642 23.646 43.27 23.43C42.898 23.202 42.466 23.088 41.974 23.088C41.494 23.088 41.062 23.202 40.678 23.43C40.306 23.646 40.012 23.946 39.796 24.33C39.592 24.714 39.49 25.158 39.49 25.662C39.49 26.166 39.592 26.616 39.796 27.012C40.012 27.408 40.306 27.72 40.678 27.948C41.062 28.164 41.494 28.272 41.974 28.272ZM52.7826 30.18C52.1226 30.18 51.5346 30.042 51.0186 29.766C50.5026 29.478 50.0946 29.088 49.7946 28.596C49.5066 28.104 49.3626 27.546 49.3626 26.922V24.438C49.3626 23.814 49.5126 23.256 49.8126 22.764C50.1126 22.272 50.5206 21.888 51.0366 21.612C51.5526 21.324 52.1346 21.18 52.7826 21.18C53.5626 21.18 54.2646 21.384 54.8886 21.792C55.5246 22.188 56.0226 22.728 56.3826 23.412C56.7546 24.084 56.9406 24.846 56.9406 25.698C56.9406 26.538 56.7546 27.3 56.3826 27.984C56.0226 28.656 55.5246 29.19 54.8886 29.586C54.2646 29.982 53.5626 30.18 52.7826 30.18ZM52.4586 28.308C52.9386 28.308 53.3586 28.2 53.7186 27.984C54.0906 27.756 54.3786 27.444 54.5826 27.048C54.7986 26.652 54.9066 26.196 54.9066 25.68C54.9066 25.164 54.7986 24.708 54.5826 24.312C54.3786 23.916 54.0906 23.61 53.7186 23.394C53.3586 23.166 52.9386 23.052 52.4586 23.052C51.9786 23.052 51.5526 23.166 51.1806 23.394C50.8086 23.61 50.5206 23.916 50.3166 24.312C50.1126 24.708 50.0106 25.164 50.0106 25.68C50.0106 26.196 50.1126 26.652 50.3166 27.048C50.5206 27.444 50.8086 27.756 51.1806 27.984C51.5526 28.2 51.9786 28.308 52.4586 28.308ZM48.1566 33.6V21.36H50.1366V23.682L49.7946 25.788L50.1366 27.876V33.6H48.1566ZM62.4715 30V17.4H63.9115L64.5415 19.776V30H62.4715ZM71.2015 30L63.6595 20.154L63.9115 17.4L71.4535 27.246L71.2015 30ZM71.2015 30L70.5715 27.786V17.4H72.6415V30H71.2015ZM79.0639 30.18C78.2239 30.18 77.4619 29.982 76.7779 29.586C76.0939 29.178 75.5479 28.632 75.1399 27.948C74.7439 27.264 74.5459 26.502 74.5459 25.662C74.5459 24.822 74.7439 24.066 75.1399 23.394C75.5479 22.722 76.0939 22.188 76.7779 21.792C77.4619 21.384 78.2239 21.18 79.0639 21.18C79.9159 21.18 80.6839 21.378 81.3679 21.774C82.0519 22.17 82.5919 22.71 82.9879 23.394C83.3959 24.066 83.5999 24.822 83.5999 25.662C83.5999 26.502 83.3959 27.264 82.9879 27.948C82.5919 28.632 82.0519 29.178 81.3679 29.586C80.6839 29.982 79.9159 30.18 79.0639 30.18ZM79.0639 28.272C79.5559 28.272 79.9879 28.164 80.3599 27.948C80.7439 27.72 81.0379 27.408 81.2419 27.012C81.4579 26.616 81.5659 26.166 81.5659 25.662C81.5659 25.158 81.4579 24.714 81.2419 24.33C81.0259 23.946 80.7319 23.646 80.3599 23.43C79.9879 23.202 79.5559 23.088 79.0639 23.088C78.5839 23.088 78.1519 23.202 77.7679 23.43C77.3959 23.646 77.1019 23.946 76.8859 24.33C76.6819 24.714 76.5799 25.158 76.5799 25.662C76.5799 26.166 76.6819 26.616 76.8859 27.012C77.1019 27.408 77.3959 27.72 77.7679 27.948C78.1519 28.164 78.5839 28.272 79.0639 28.272ZM87.5555 30L84.0815 21.36H86.1335L88.4735 27.642L87.8615 27.66L90.1475 21.36H91.2995L93.5855 27.66L92.9735 27.642L95.3135 21.36H97.3655L93.8915 30H92.7395L90.3995 24.024H91.0475L88.7075 30H87.5555Z" fill="white" fill-opacity="0.9"/>
<path d="M2.14805 1.28976C44.8933 6.82814 70.1534 6.76823 113.856 1.27988C114.466 1.2032 115 1.68035 115 2.27224V43.7913C115 44.3725 114.485 44.8453 113.885 44.7868C70.6508 40.5674 45.3992 40.5169 2.11643 44.7843C1.51572 44.8435 1 44.3705 1 43.7889V2.2819C1 1.6879 1.53628 1.21049 2.14805 1.28976Z" stroke="white" stroke-width="2"/>
</svg>

<svg width="116" height="46" fill="none" xmlns="http://www.w3.org/2000/svg"><path d="M21.878 30.18c-.996 0-1.842-.18-2.538-.54-.696-.36-1.32-.888-1.872-1.584l1.404-1.404c.348.504.762.9 1.242 1.188.48.276 1.092.414 1.836.414.696 0 1.248-.144 1.656-.432.42-.288.63-.684.63-1.188 0-.42-.108-.762-.324-1.026a2.41 2.41 0 0 0-.864-.648 6.992 6.992 0 0 0-1.17-.468c-.42-.144-.846-.3-1.278-.468-.42-.18-.81-.402-1.17-.666a2.968 2.968 0 0 1-.846-1.026c-.216-.42-.324-.954-.324-1.602 0-.744.18-1.374.54-1.89.372-.528.87-.93 1.494-1.206.624-.276 1.32-.414 2.088-.414.828 0 1.566.162 2.214.486.66.324 1.194.738 1.602 1.242l-1.404 1.404c-.36-.408-.738-.708-1.134-.9-.384-.204-.828-.306-1.332-.306-.624 0-1.116.126-1.476.378-.348.252-.522.606-.522 1.062 0 .384.108.696.324.936.216.228.498.426.846.594.36.156.75.306 1.17.45.432.144.858.306 1.278.486.432.18.822.414 1.17.702.36.276.648.636.864 1.08.216.444.324 1.002.324 1.674 0 1.128-.402 2.022-1.206 2.682-.792.66-1.866.99-3.222.99ZM34.022 30v-4.986c0-.576-.186-1.05-.558-1.422-.36-.372-.828-.558-1.404-.558-.384 0-.726.084-1.026.252-.3.168-.534.402-.702.702-.168.3-.252.642-.252 1.026l-.774-.432c0-.66.144-1.242.432-1.746a3.102 3.102 0 0 1 1.188-1.206c.516-.3 1.092-.45 1.728-.45.648 0 1.224.144 1.728.432.504.288.9.69 1.188 1.206.288.504.432 1.092.432 1.764V30h-1.98ZM28.1 30V17.04h1.98V30H28.1Zm13.874.18a4.48 4.48 0 0 1-2.286-.594 4.656 4.656 0 0 1-1.638-1.638 4.48 4.48 0 0 1-.594-2.286c0-.84.198-1.596.594-2.268a4.556 4.556 0 0 1 1.638-1.602 4.377 4.377 0 0 1 2.286-.612c.852 0 1.62.198 2.304.594a4.372 4.372 0 0 1 1.62 1.62c.408.672.612 1.428.612 2.268 0 .84-.204 1.602-.612 2.286a4.51 4.51 0 0 1-1.62 1.638c-.684.396-1.452.594-2.304.594Zm0-1.908c.492 0 .924-.108 1.296-.324.384-.228.678-.54.882-.936.216-.396.324-.846.324-1.35 0-.504-.108-.948-.324-1.332a2.354 2.354 0 0 0-.882-.9c-.372-.228-.804-.342-1.296-.342-.48 0-.912.114-1.296.342a2.354 2.354 0 0 0-.882.9c-.204.384-.306.828-.306 1.332 0 .504.102.954.306 1.35.216.396.51.708.882.936.384.216.816.324 1.296.324Zm10.809 1.908c-.66 0-1.248-.138-1.764-.414a3.276 3.276 0 0 1-1.224-1.17 3.251 3.251 0 0 1-.432-1.674v-2.484c0-.624.15-1.182.45-1.674.3-.492.708-.876 1.224-1.152a3.52 3.52 0 0 1 1.746-.432c.78 0 1.482.204 2.106.612a4.14 4.14 0 0 1 1.494 1.62c.372.672.558 1.434.558 2.286 0 .84-.186 1.602-.558 2.286a4.173 4.173 0 0 1-1.494 1.602 3.847 3.847 0 0 1-2.106.594Zm-.324-1.872c.48 0 .9-.108 1.26-.324.372-.228.66-.54.864-.936.216-.396.324-.852.324-1.368 0-.516-.108-.972-.324-1.368a2.202 2.202 0 0 0-.864-.918c-.36-.228-.78-.342-1.26-.342s-.906.114-1.278.342c-.372.216-.66.522-.864.918-.204.396-.306.852-.306 1.368 0 .516.102.972.306 1.368.204.396.492.708.864.936.372.216.798.324 1.278.324ZM48.157 33.6V21.36h1.98v2.322l-.342 2.106.342 2.088V33.6h-1.98ZM62.472 30V17.4h1.44l.63 2.376V30h-2.07Zm8.73 0-7.542-9.846.252-2.754 7.542 9.846L71.202 30Zm0 0-.63-2.214V17.4h2.07V30h-1.44Zm7.862.18a4.48 4.48 0 0 1-2.286-.594 4.656 4.656 0 0 1-1.638-1.638 4.48 4.48 0 0 1-.594-2.286c0-.84.198-1.596.594-2.268a4.556 4.556 0 0 1 1.638-1.602 4.377 4.377 0 0 1 2.286-.612c.852 0 1.62.198 2.304.594a4.372 4.372 0 0 1 1.62 1.62c.408.672.612 1.428.612 2.268 0 .84-.204 1.602-.612 2.286a4.51 4.51 0 0 1-1.62 1.638c-.684.396-1.452.594-2.304.594Zm0-1.908c.492 0 .924-.108 1.296-.324.384-.228.678-.54.882-.936.216-.396.324-.846.324-1.35 0-.504-.108-.948-.324-1.332a2.354 2.354 0 0 0-.882-.9c-.372-.228-.804-.342-1.296-.342-.48 0-.912.114-1.296.342a2.354 2.354 0 0 0-.882.9c-.204.384-.306.828-.306 1.332 0 .504.102.954.306 1.35.216.396.51.708.882.936.384.216.816.324 1.296.324ZM87.556 30l-3.474-8.64h2.052l2.34 6.282-.612.018 2.285-6.3H91.3l2.286 6.3-.611-.018 2.34-6.282h2.052L93.89 30h-1.15l-2.34-5.976h.647L88.707 30h-1.151Z" fill="#fff" fill-opacity=".9"/><path d="M2.148 1.29c42.745 5.538 68.005 5.478 111.708-.01.61-.077 1.144.4 1.144.992v41.52c0 .58-.515 1.053-1.115.995-43.234-4.22-68.486-4.27-111.769-.003-.6.06-1.116-.413-1.116-.995V2.282c0-.594.536-1.072 1.148-.992Z" stroke="#fff" stroke-width="2"/></svg>
